hsnuhayato/rtm-ros-robotics/agentsystem_hironx_samples/semi/traj.txt
# dt ['CHEST_JOINT0', 'LARM_JOINT0', 'LARM_JOINT1', 'LARM_JOINT2', 'LARM_JOINT3', 'LARM_JOINT4', 'LARM_JOINT5', #残りは使っていないので分かりません#]

3.3696920125e-05
[  1.02317993e-08  -4.19996022e-01  -4.19993552e-01  -2.30999562e+00
  -6.90008805e-01   1.19998201e+00  -2.19979951e-01   6.07283943e-04
   5.35545657e-04  -8.26904259e-04   5.70861656e-04   7.01996195e-04
  -1.49584760e-03   1.68484601e-03   3.36969201e-05   1.00000000e+00]
0.0015010383119
[  4.69607868e-06  -4.19985435e-01  -4.20001593e-01  -2.30998045e+00
  -6.89951423e-01   1.19996650e+00  -2.19961277e-01   5.63619011e-03
   1.35707747e-02  -9.88682932e-03   1.96321093e-02   7.57539118e-02
  -1.91747224e-02   2.31976900e-02   1.50103831e-03   1.00000000e+00]
0.00472132660897
[  5.13833483e-05  -4.19825479e-01  -4.20090131e-01  -2.30974017e+00
  -6.89036491e-01   1.19978603e+00  -2.19732905e-01   1.41409927e-02
   5.41883061e-02  -2.76188760e-02   8.21527573e-02   3.11820242e-01
  -5.72729973e-02   7.35427232e-02   4.72132661e-03   1.00000000e+00]
0.0142993671754
[  3.40360418e-04  -4.18150792e-01  -4.20826908e-01  -2.30718050e+00
  -6.79465861e-01   1.19821267e+00  -2.17665034e-01   2.62771693e-02
   1.80044041e-01  -7.54314598e-02   2.75859545e-01   1.02678860e+00
  -1.62787922e-01   2.15682744e-01   1.42993672e-02   0.00000000e+00]
0.0301950141598
[  7.46893841e-04  -4.08702029e-01  -4.24628846e-01  -2.29267547e+00
  -6.25668493e-01   1.18993342e+00  -2.06621011e-01   6.50019408e-04
   4.45805152e-01  -1.76394085e-01   6.84897172e-01   2.53653931e+00
  -3.85596707e-01   5.15830289e-01   3.01950142e-02   1.00000000e+00]
0.00162901381999
[  7.46820321e-04  -4.07964091e-01  -4.24920592e-01  -2.29154169e+00
  -6.21470093e-01   1.18929556e+00  -2.05767607e-01  -7.40282332e-04
   4.60188472e-01  -1.81792456e-01   7.07084253e-01   2.61799000e+00
  -3.97528758e-01   5.31925187e-01   1.62901382e-03   0.00000000e+00]
0.241536608866
[-0.02432745 -0.03925653 -0.56549617 -1.72346156  0.01087033  0.87961632
  0.21091538 -0.20688265  2.59282751 -0.98221804  3.9968      2.61799
 -2.16671395  2.91834261  0.24153661  0.        ]
0.0353873469435
[-0.03218286  0.05802517 -0.60232919 -1.58202541  0.10351405  0.79835583
  0.32037407 -0.23708441  2.90527885 -1.09948779  3.9968      2.61799
 -2.42591594  3.26797483  0.03538735  0.        ]
0.00997426159669
[-0.03459005  0.08744239 -0.61313093 -1.54216029  0.12962657  0.77379475
  0.35346117 -0.24559707  2.99334625 -1.06643419  3.9968      2.61799
 -2.4989745   3.36652201  0.00997426  0.        ]
0.000976701569396
[ -3.48303354e-02   9.03702040e-02  -6.14170933e-01  -1.53825660e+00
   1.32183566e-01   7.71357494e-01   3.56753968e-01  -2.46430648e-01
   3.00197000e+00  -1.06319751e+00   3.99680000e+00   2.61799000e+00
  -2.49182045e+00   3.37617197e+00   9.76701569e-04   0.00000000e+00]
0.00675397644241
[-0.03651419  0.11064544 -0.62127616 -1.51126231  0.14986541  0.75469486
  0.3797819  -0.25219491  3.00197    -1.04081558  3.9968      2.61799
 -2.44234954  3.44290225  0.00675398  0.        ]
0.0617561051711
[-0.05371624  0.29603541 -0.67923359 -1.26443551  0.31154227  0.61783241
  0.5735616  -0.30490141  3.00197    -0.83616269  3.9968      2.61799
 -1.99000409  2.8327428   0.06175611  0.        ]
0.0481856739207
[-0.06939893  0.43043697 -0.71567746 -1.07184701  0.43769189  0.53044619
  0.69858906 -0.34602607  2.57651628 -0.6764807   3.9968      2.61799
 -1.63705808  2.35666121  0.04818567  0.        ]
0.150292740256
[-0.1310431   0.71794909 -0.77992069 -0.62498004  0.83115678  0.36713317
  0.9411922  -0.47429524  1.24951178 -0.17842719  1.94982088  2.61799
 -0.53620761  0.87174671  0.15029274  0.        ]
0.0464970227501
[-0.15217383  0.76650314 -0.78463475 -0.54904215  0.95288552  0.35011902
  0.97104552 -0.43461179  0.83896795 -0.0243412   1.31653391  2.61799
 -0.19563048  0.41234925  0.04649702  1.        ]
0.0215125042492
[-0.16103019  0.78243743 -0.7844615  -0.52403009  1.00920504  0.34747356
  0.97778036 -0.3887565   0.6424303   0.04044805  1.00881716  2.61799
 -0.05031594  0.21378354  0.0215125   0.        ]
0.0462987240005
[-0.17674454  0.80238933 -0.77936091 -0.49265406  1.07682534  0.35238379
  0.97778542 -0.2900678   0.21944644  0.17988602  0.34655613  0.3030538
  0.26242672 -0.21356507  0.04629872  1.        ]
0.00693112266339
[-0.17774979  0.80314983 -0.7787375  -0.49145305  1.07787559  0.35329324
  0.9770453   0.          0.          0.          0.          0.          0.
  0.          0.00693112  1.        ]
